src/lib/packages/icons/src/assets/filled/message-exclamation.svg

<svg width="24" height="24" viewBox="0 0 24 24" fill="none" xmlns="http://www.w3.org/2000/svg">
<path d="M18 3H6C4 3 3 4 3 6V21L6 18H18C20 18 21 17 21 15V6C21 4 20 3 18 3ZM11.25 7.5C11.25 7.086 11.586 6.75 12 6.75C12.414 6.75 12.75 7.086 12.75 7.5V10.5C12.75 10.914 12.414 11.25 12 11.25C11.586 11.25 11.25 10.914 11.25 10.5V7.5ZM12.02 14.5C11.468 14.5 11.0149 14.052 11.0149 13.5C11.0149 12.948 11.458 12.5 12.01 12.5H12.02C12.573 12.5 13.02 12.948 13.02 13.5C13.02 14.052 12.572 14.5 12.02 14.5Z" fill="currentColor"/>
</svg>

<svg xmlns="http://www.w3.org/2000/svg" width="24" height="24" fill="none"><path fill="currentColor" d="M18 3H6C4 3 3 4 3 6v15l3-3h12c2 0 3-1 3-3V6c0-2-1-3-3-3Zm-6.75 4.5a.75.75 0 0 1 1.5 0v3a.75.75 0 0 1-1.5 0v-3Zm.77 7a1.005 1.005 0 0 1-1.005-1c0-.552.443-1 .995-1h.01a1 1 0 1 1 0 2Z"/></svg>
